images/16758023.svg

<?xml version="1.0" encoding="UTF-8"?>
<svg xmlns="http://www.w3.org/2000/svg" xmlns:xlink="http://www.w3.org/1999/xlink" width="300pt" height="300pt" viewBox="0 0 300 300" version="1.1">
<defs>
<g>
<symbol overflow="visible" id="glyph0-0">
<path style="stroke:none;" d="M 0.640625 2.296875 L 0.640625 -9.171875 L 7.140625 -9.171875 L 7.140625 2.296875 Z M 1.375 1.578125 L 6.421875 1.578125 L 6.421875 -8.4375 L 1.375 -8.4375 Z M 1.375 1.578125 "/>
</symbol>
<symbol overflow="visible" id="glyph0-1">
<path style="stroke:none;" d="M 5.125 -8.609375 C 4.1875 -8.609375 3.441406 -8.257812 2.890625 -7.5625 C 2.347656 -6.875 2.078125 -5.929688 2.078125 -4.734375 C 2.078125 -3.535156 2.347656 -2.585938 2.890625 -1.890625 C 3.441406 -1.203125 4.1875 -0.859375 5.125 -0.859375 C 6.050781 -0.859375 6.785156 -1.203125 7.328125 -1.890625 C 7.878906 -2.585938 8.15625 -3.535156 8.15625 -4.734375 C 8.15625 -5.929688 7.878906 -6.875 7.328125 -7.5625 C 6.785156 -8.257812 6.050781 -8.609375 5.125 -8.609375 Z M 5.125 -9.65625 C 6.445312 -9.65625 7.503906 -9.207031 8.296875 -8.3125 C 9.097656 -7.414062 9.5 -6.222656 9.5 -4.734375 C 9.5 -3.234375 9.097656 -2.035156 8.296875 -1.140625 C 7.503906 -0.253906 6.445312 0.1875 5.125 0.1875 C 3.789062 0.1875 2.722656 -0.253906 1.921875 -1.140625 C 1.128906 -2.035156 0.734375 -3.234375 0.734375 -4.734375 C 0.734375 -6.222656 1.128906 -7.414062 1.921875 -8.3125 C 2.722656 -9.207031 3.789062 -9.65625 5.125 -9.65625 Z M 5.125 -9.65625 "/>
</symbol>
<symbol overflow="visible" id="glyph0-2">
<path style="stroke:none;" d="M 1.28125 -9.484375 L 2.5625 -9.484375 L 2.5625 -5.59375 L 7.21875 -5.59375 L 7.21875 -9.484375 L 8.5 -9.484375 L 8.5 0 L 7.21875 0 L 7.21875 -4.515625 L 2.5625 -4.515625 L 2.5625 0 L 1.28125 0 Z M 1.28125 -9.484375 "/>
</symbol>
</g>
</defs>
<g id="surface52189">
<rect x="0" y="0" width="300" height="300" style="fill:rgb(100%,100%,100%);fill-opacity:1;stroke:none;"/>
<path style="fill:none;stroke-width:1.2;stroke-linecap:butt;stroke-linejoin:miter;stroke:rgb(0%,0%,0%);stroke-opacity:1;stroke-miterlimit:10;" d="M 127.445312 222.003906 L 113.65625 192.65625 "/>
<path style="fill:none;stroke-width:1.2;stroke-linecap:butt;stroke-linejoin:miter;stroke:rgb(0%,0%,0%);stroke-opacity:1;stroke-miterlimit:10;" d="M 113.65625 192.65625 L 81.347656 189.921875 "/>
<path style="fill:none;stroke-width:1.2;stroke-linecap:butt;stroke-linejoin:miter;stroke:rgb(0%,0%,0%);stroke-opacity:1;stroke-miterlimit:10;" d="M 111.070312 184.78125 L 85.222656 182.59375 "/>
<path style="fill:none;stroke-width:1.2;stroke-linecap:butt;stroke-linejoin:miter;stroke:rgb(0%,0%,0%);stroke-opacity:1;stroke-miterlimit:10;" d="M 132.179688 166.039062 L 113.65625 192.65625 "/>
<path style="fill:none;stroke-width:1.2;stroke-linecap:butt;stroke-linejoin:miter;stroke:rgb(0%,0%,0%);stroke-opacity:1;stroke-miterlimit:10;" d="M 81.347656 189.921875 L 67.558594 160.574219 "/>
<path style="fill:none;stroke-width:1.2;stroke-linecap:butt;stroke-linejoin:miter;stroke:rgb(0%,0%,0%);stroke-opacity:1;stroke-miterlimit:10;" d="M 67.882812 156.773438 L 51.726562 155.40625 "/>
<path style="fill:none;stroke-width:1.2;stroke-linecap:butt;stroke-linejoin:miter;stroke:rgb(100%,0%,0%);stroke-opacity:1;stroke-miterlimit:10;" d="M 51.726562 155.40625 L 35.570312 154.039062 "/>
<path style="fill:none;stroke-width:1.2;stroke-linecap:butt;stroke-linejoin:miter;stroke:rgb(0%,0%,0%);stroke-opacity:1;stroke-miterlimit:10;" d="M 67.238281 164.375 L 51.082031 163.007812 "/>
<path style="fill:none;stroke-width:1.2;stroke-linecap:butt;stroke-linejoin:miter;stroke:rgb(100%,0%,0%);stroke-opacity:1;stroke-miterlimit:10;" d="M 51.082031 163.007812 L 34.929688 161.640625 "/>
<path style="fill:none;stroke-width:1.2;stroke-linecap:butt;stroke-linejoin:miter;stroke:rgb(0%,0%,0%);stroke-opacity:1;stroke-miterlimit:10;" d="M 67.558594 160.574219 L 86.082031 133.960938 "/>
<path style=" stroke:none;fill-rule:nonzero;fill:rgb(100%,100%,100%);fill-opacity:1;" d="M 24.25 149.839844 L 35.25 149.839844 L 35.25 165.839844 L 24.25 165.839844 Z M 24.25 149.839844 "/>
<g style="fill:rgb(100%,0%,0%);fill-opacity:1;">
  <use xlink:href="#glyph0-1" x="24.25" y="162.21582"/>
</g>
<path style="fill:none;stroke-width:1.2;stroke-linecap:butt;stroke-linejoin:miter;stroke:rgb(0%,0%,0%);stroke-opacity:1;stroke-miterlimit:10;" d="M 86.082031 133.960938 L 118.390625 136.691406 "/>
<path style="fill:none;stroke-width:1.2;stroke-linecap:butt;stroke-linejoin:miter;stroke:rgb(0%,0%,0%);stroke-opacity:1;stroke-miterlimit:10;" d="M 72.292969 104.609375 L 86.082031 133.960938 "/>
<path style="fill:none;stroke-width:1.2;stroke-linecap:butt;stroke-linejoin:miter;stroke:rgb(0%,0%,0%);stroke-opacity:1;stroke-miterlimit:10;" d="M 118.390625 136.691406 L 132.179688 166.039062 "/>
<path style="fill:none;stroke-width:1.2;stroke-linecap:butt;stroke-linejoin:miter;stroke:rgb(0%,0%,0%);stroke-opacity:1;stroke-miterlimit:10;" d="M 118.390625 136.691406 L 136.914062 110.078125 "/>
<path style="fill:none;stroke-width:1;stroke-linecap:butt;stroke-linejoin:miter;stroke:rgb(0%,0%,0%);stroke-opacity:1;stroke-miterlimit:10;" d="M 118.390625 136.691406 L 118.390625 136.691406 M 121.390625 136.738281 L 121.226562 135.707031 M 124.390625 136.78125 L 124.058594 134.722656 M 127.390625 136.824219 L 126.894531 133.738281 M 130.390625 136.867188 L 129.726562 132.75 M 133.390625 136.914062 L 132.558594 131.765625 M 136.390625 136.957031 L 135.394531 130.78125 M 139.390625 137 L 138.226562 129.796875 M 142.390625 137.046875 L 141.058594 128.808594 M 145.390625 137.089844 L 143.894531 127.824219 M 148.390625 137.132812 L 146.726562 126.839844 M 151.316406 137.175781 L 149.492188 125.878906 "/>
<path style=" stroke:none;fill-rule:nonzero;fill:rgb(0%,0%,0%);fill-opacity:1;" d="M 132.179688 166.039062 L 161.984375 152.042969 L 155.390625 142.6875 Z M 132.179688 166.039062 "/>
<path style="fill:none;stroke-width:1.2;stroke-linecap:butt;stroke-linejoin:miter;stroke:rgb(0%,0%,0%);stroke-opacity:1;stroke-miterlimit:10;" d="M 132.179688 166.039062 L 143.675781 177.472656 "/>
<path style="fill:none;stroke-width:1.2;stroke-linecap:butt;stroke-linejoin:miter;stroke:rgb(100%,0%,0%);stroke-opacity:1;stroke-miterlimit:10;" d="M 143.675781 177.472656 L 155.171875 188.902344 "/>
<path style="fill:none;stroke-width:1.2;stroke-linecap:butt;stroke-linejoin:miter;stroke:rgb(0%,0%,0%);stroke-opacity:1;stroke-miterlimit:10;" d="M 158.6875 147.367188 L 188.113281 160.988281 "/>
<path style="fill:none;stroke-width:1.2;stroke-linecap:butt;stroke-linejoin:miter;stroke:rgb(0%,0%,0%);stroke-opacity:1;stroke-miterlimit:10;" d="M 188.113281 160.988281 L 214.621094 142.3125 "/>
<path style="fill:none;stroke-width:1.2;stroke-linecap:butt;stroke-linejoin:miter;stroke:rgb(0%,0%,0%);stroke-opacity:1;stroke-miterlimit:10;" d="M 214.621094 142.3125 L 215.09375 109.890625 "/>
<path style="fill:none;stroke-width:1.2;stroke-linecap:butt;stroke-linejoin:miter;stroke:rgb(0%,0%,0%);stroke-opacity:1;stroke-miterlimit:10;" d="M 222.296875 139.179688 L 222.675781 113.242188 "/>
<path style="fill:none;stroke-width:1.2;stroke-linecap:butt;stroke-linejoin:miter;stroke:rgb(0%,0%,0%);stroke-opacity:1;stroke-miterlimit:10;" d="M 245.308594 152.78125 L 214.621094 142.3125 "/>
<path style="fill:none;stroke-width:1.2;stroke-linecap:butt;stroke-linejoin:miter;stroke:rgb(0%,0%,0%);stroke-opacity:1;stroke-miterlimit:10;" d="M 215.09375 109.890625 L 230.585938 105.105469 "/>
<path style="fill:none;stroke-width:1.2;stroke-linecap:butt;stroke-linejoin:miter;stroke:rgb(100%,0%,0%);stroke-opacity:1;stroke-miterlimit:10;" d="M 230.585938 105.105469 L 246.074219 100.320312 "/>
<path style="fill:none;stroke-width:1.2;stroke-linecap:butt;stroke-linejoin:miter;stroke:rgb(100%,0%,0%);stroke-opacity:1;stroke-miterlimit:10;" d="M 246.074219 100.320312 L 255.414062 113.574219 "/>
<path style="fill:none;stroke-width:1.2;stroke-linecap:butt;stroke-linejoin:miter;stroke:rgb(0%,0%,0%);stroke-opacity:1;stroke-miterlimit:10;" d="M 255.414062 113.574219 L 264.75 126.828125 "/>
<path style=" stroke:none;fill-rule:nonzero;fill:rgb(100%,100%,100%);fill-opacity:1;" d="M 241.074219 92.320312 L 252.074219 92.320312 L 252.074219 108.320312 L 241.074219 108.320312 Z M 241.074219 92.320312 "/>
<g style="fill:rgb(100%,0%,0%);fill-opacity:1;">
  <use xlink:href="#glyph0-1" x="241.074219" y="104.696289"/>
</g>
<path style="fill:none;stroke-width:1.2;stroke-linecap:butt;stroke-linejoin:miter;stroke:rgb(0%,0%,0%);stroke-opacity:1;stroke-miterlimit:10;" d="M 264.75 126.828125 L 245.308594 152.78125 "/>
<path style="fill:none;stroke-width:1.2;stroke-linecap:butt;stroke-linejoin:miter;stroke:rgb(0%,0%,0%);stroke-opacity:1;stroke-miterlimit:10;" d="M 256.699219 124.851562 L 241.148438 145.613281 "/>
<path style=" stroke:none;fill-rule:nonzero;fill:rgb(100%,100%,100%);fill-opacity:1;" d="M 145.171875 180.902344 L 166.171875 180.902344 L 166.171875 196.902344 L 145.171875 196.902344 Z M 145.171875 180.902344 "/>
<g style="fill:rgb(100%,0%,0%);fill-opacity:1;">
  <use xlink:href="#glyph0-1" x="145.171875" y="193.27832"/>
  <use xlink:href="#glyph0-2" x="155.662109" y="193.27832"/>
</g>
<path style="fill:none;stroke-width:1.2;stroke-linecap:butt;stroke-linejoin:miter;stroke:rgb(0%,0%,0%);stroke-opacity:1;stroke-miterlimit:10;" d="M 136.914062 110.078125 L 123.128906 80.730469 "/>
<path style="fill:none;stroke-width:1.2;stroke-linecap:butt;stroke-linejoin:miter;stroke:rgb(0%,0%,0%);stroke-opacity:1;stroke-miterlimit:10;" d="M 123.128906 80.730469 L 90.816406 77.996094 "/>
<path style="fill:none;stroke-width:1.2;stroke-linecap:butt;stroke-linejoin:miter;stroke:rgb(0%,0%,0%);stroke-opacity:1;stroke-miterlimit:10;" d="M 90.816406 77.996094 L 72.292969 104.609375 "/>
<path style="fill:none;stroke-width:1.2;stroke-linecap:butt;stroke-linejoin:miter;stroke:rgb(0%,0%,0%);stroke-opacity:1;stroke-miterlimit:10;" d="M 72.292969 104.609375 L 45.785156 123.285156 "/>
<path style="fill:none;stroke-width:1.2;stroke-linecap:butt;stroke-linejoin:miter;stroke:rgb(0%,0%,0%);stroke-opacity:1;stroke-miterlimit:10;" d="M 72.292969 104.609375 L 49.300781 81.75 "/>
</g>
</svg>

<svg xmlns="http://www.w3.org/2000/svg" xmlns:xlink="http://www.w3.org/1999/xlink" width="300pt" height="300pt" viewBox="0 0 300 300"><defs><symbol overflow="visible"><path d="M.64 2.297v-11.47h6.5v11.47zm.735-.72h5.047V-8.436H1.375zm0 0"/></symbol><symbol overflow="visible" id="a"><path d="M5.125-8.61c-.938 0-1.684.352-2.234 1.047-.542.688-.812 1.633-.812 2.83 0 1.198.27 2.147.813 2.842.55.687 1.297 1.03 2.235 1.03.926 0 1.66-.343 2.203-1.03.55-.696.828-1.645.828-2.844 0-1.196-.277-2.14-.828-2.829-.543-.695-1.277-1.046-2.203-1.046zm0-1.046c1.32 0 2.38.45 3.172 1.344.8.898 1.203 2.09 1.203 3.578 0 1.5-.402 2.7-1.203 3.593C7.504-.255 6.445.186 5.125.186c-1.336 0-2.402-.44-3.203-1.328C1.13-2.036.734-3.235.734-4.735c0-1.49.395-2.68 1.188-3.579.8-.894 1.867-1.343 3.203-1.343zm0 0"/></symbol><symbol overflow="visible" id="b"><path d="M1.28-9.484h1.282v3.89H7.22v-3.89H8.5V0H7.22v-4.516H2.562V0H1.28zm0 0"/></symbol></defs><g><path fill="#fff" d="M0 0h300v300H0z"/><path d="M127.445 222.004l-13.79-29.348M113.656 192.656l-32.308-2.734M111.07 184.78l-25.847-2.186M132.18 166.04l-18.524 26.616M81.348 189.922l-13.79-29.348M67.883 156.773l-16.156-1.367" stroke-width="1.2" stroke="#000" stroke-miterlimit="10" fill="none"/><path d="M51.727 155.406L35.57 154.04" stroke-width="1.2" stroke="#f00" stroke-miterlimit="10" fill="none"/><path d="M67.238 164.375l-16.156-1.367" stroke-width="1.2" stroke="#000" stroke-miterlimit="10" fill="none"/><path d="M51.082 163.008L34.93 161.64" stroke-width="1.2" stroke="#f00" stroke-miterlimit="10" fill="none"/><path d="M67.56 160.574L86.08 133.96" stroke-width="1.2" stroke="#000" stroke-miterlimit="10" fill="none"/><path d="M24.25 149.84h11v16h-11zm0 0" fill="#fff"/><use xlink:href="#a" x="24.25" y="162.216" fill="#f00"/><path d="M86.082 133.96l32.31 2.73M72.293 104.61l13.79 29.35M118.39 136.69l13.79 29.35M118.39 136.69l18.524-26.612" stroke-width="1.2" stroke="#000" stroke-miterlimit="10" fill="none"/><path d="M118.39 136.69m3 .048l-.163-1.03m3.164 1.073l-.33-2.057m3.33 2.1l-.495-3.085m3.496 3.13l-.663-4.118m3.664 4.164l-.83-5.148m3.83 5.19l-.995-6.175m3.996 6.22l-1.163-7.203m4.164 7.25l-1.33-8.238m4.33 8.28l-1.495-9.266m4.496 9.31l-1.663-10.294m4.59 10.336l-1.825-11.297" stroke="#000" stroke-miterlimit="10" fill="none"/><path d="M132.18 166.04l29.804-13.997-6.593-9.356zm0 0"/><path d="M132.18 166.04l11.496 11.433" stroke-width="1.2" stroke="#000" stroke-miterlimit="10" fill="none"/><path d="M143.676 177.473l11.496 11.43" stroke-width="1.2" stroke="#f00" stroke-miterlimit="10" fill="none"/><path d="M158.688 147.367l29.425 13.62M188.113 160.988l26.508-18.675M214.62 142.313l.474-32.422M222.297 139.18l.38-25.938M245.31 152.78l-30.69-10.468M215.094 109.89l15.492-4.785" stroke-width="1.2" stroke="#000" stroke-miterlimit="10" fill="none"/><path d="M230.586 105.105l15.488-4.785M246.074 100.32l9.34 13.254" stroke-width="1.2" stroke="#f00" stroke-miterlimit="10" fill="none"/><path d="M255.414 113.574l9.336 13.254" stroke-width="1.2" stroke="#000" stroke-miterlimit="10" fill="none"/><path d="M241.074 92.32h11v16h-11zm0 0" fill="#fff"/><use xlink:href="#a" x="241.074" y="104.696" fill="#f00"/><path d="M264.75 126.828l-19.44 25.953M256.7 124.852l-15.552 20.76" stroke-width="1.2" stroke="#000" stroke-miterlimit="10" fill="none"/><path d="M145.172 180.902h21v16h-21zm0 0" fill="#fff"/><g fill="#f00"><use xlink:href="#a" x="145.172" y="193.278"/><use xlink:href="#b" x="155.662" y="193.278"/></g><path d="M136.914 110.078L123.13 80.73M123.13 80.73l-32.314-2.734M90.816 77.996L72.293 104.61M72.293 104.61l-26.508 18.675M72.293 104.61L49.3 81.75" stroke-width="1.2" stroke="#000" stroke-miterlimit="10" fill="none"/></g></svg>
